!!!OTL: Die alte Schwieger und die Schnur.
!!!ARE: Europa, Mitteleuropa, Deutschland
!!!SCT: A0235
!!!TXL: @@GMH
!!!YEM: Copyright 1995, estate of Helmut Schaffrath.
**kern	**text
*M4/4	*
*met(c)	*
*clefC1	*
*k[b-]	*
*F:ion	*
!LO:TX:a:t=P:note in parenthesis:problem	!
!LO:TX:a:t=jon. F. mit Quintſchl.	!
{4c	.
=1	=1
4f\	'Heinʒ,
4f\	.
4g	wil-
4g	-tu
=2	=2
4a	Chri-
4a	-ſta
2f}	han?'
=3	=3
{4g	ſprach
4a	die
4b-	al-
4cc	-te
=4	=4
2a	Schwieger.
2g}	.
=5	=5
{4d	"A-
4e	-we
2f	ja,
=6	=6
4d	da-
4e	-da-
2f}	-da!"
=7	=7
{4g/	ſprach
4f	die
4e	Schnur
4f	her-
=8	=8
2d	-wi-
!LO:TX:a:t=P:2c in the source:problem	!
!LO:N:vis=2	!
4c}	-der.
==	==
!!!GTL: Liebeslieder
!!!AGN: Romanze, Ballade, Lied
!! Melch. Franck, Fasc. quodl. 1611 No. 3.
!!!ONB: ESAC (Essen Associative Code) Database: ALTDEU
!!!AMT: simple quadruple
!!!AIN: vox
!!!EED: Helmut Schaffrath
!!!EEV: 1.0
!!!AMD: Ionian
!!!URL-scan: https://rosdok.uni-rostock.de/mcrviewer/recordIdentifier/rosdok_ppn738218359/iview2/phys_0386.iview2?x=-495.6391625615763&y=1264.5216748996172&scale=0.4629418472063854&rotation=0&layout=singlePageLayout&logicalDiv=log_0010
!!!ENC: Anna Maria Matuszewska
!!!EEV: 2024/08/03
*-	*-
